findly-builder/apps/searchassist/src/assets/icons/sidemenu/new-icons/search-interface-active.svg

<svg width="14" height="12" viewBox="0 0 14 12" fill="none" xmlns="http://www.w3.org/2000/svg">
<path d="M1.5 0C0.677469 0 0 0.677469 0 1.5V10.5C0 11.3225 0.677469 12 1.5 12H12.5C13.3225 12 14 11.3225 14 10.5V1.5C14 0.677469 13.3225 0 12.5 0H1.5ZM1.5 1H12.5C12.7815 1 13 1.21853 13 1.5V2H1V1.5C1 1.21853 1.21853 1 1.5 1ZM1 3H13V10.5C13 10.7815 12.7815 11 12.5 11H1.5C1.21853 11 1 10.7815 1 10.5V3ZM2.5 5C2.3674 5.00001 2.24023 5.0527 2.14646 5.14646C2.0527 5.24023 2.00001 5.3674 2 5.5V9.5C2.00001 9.6326 2.0527 9.75977 2.14646 9.85354C2.24023 9.9473 2.3674 9.99999 2.5 10H5.5C5.6326 9.99999 5.75977 9.9473 5.85354 9.85354C5.9473 9.75977 5.99999 9.6326 6 9.5V5.5C5.99999 5.3674 5.9473 5.24023 5.85354 5.14646C5.75977 5.0527 5.6326 5.00001 5.5 5H2.5ZM7.5 5C7.22386 5 7 5.22386 7 5.5C7 5.77614 7.22386 6 7.5 6H11.5C11.7761 6 12 5.77614 12 5.5C12 5.22386 11.7761 5 11.5 5H7.5ZM3 6H5V9H3V6ZM7.5 7C7.22386 7 7 7.22386 7 7.5C7 7.77614 7.22386 8 7.5 8H11.5C11.7761 8 12 7.77614 12 7.5C12 7.22386 11.7761 7 11.5 7H7.5ZM7.5 9C7.22386 9 7 9.22386 7 9.5C7 9.77614 7.22386 10 7.5 10H11.5C11.7761 10 12 9.77614 12 9.5C12 9.22386 11.7761 9 11.5 9H7.5Z" fill="#0D6EFD"/>
</svg>

<svg width="14" height="12" fill="none" xmlns="http://www.w3.org/2000/svg"><path d="M1.5 0C.677 0 0 .677 0 1.5v9c0 .822.677 1.5 1.5 1.5h11c.822 0 1.5-.678 1.5-1.5v-9c0-.823-.678-1.5-1.5-1.5h-11Zm0 1h11c.281 0 .5.219.5.5V2H1v-.5c0-.281.219-.5.5-.5ZM1 3h12v7.5c0 .281-.219.5-.5.5h-11a.493.493 0 0 1-.5-.5V3Zm1.5 2a.5.5 0 0 0-.5.5v4a.5.5 0 0 0 .5.5h3a.5.5 0 0 0 .5-.5v-4a.5.5 0 0 0-.5-.5h-3Zm5 0a.5.5 0 0 0 0 1h4a.5.5 0 0 0 0-1h-4ZM3 6h2v3H3V6Zm4.5 1a.5.5 0 0 0 0 1h4a.5.5 0 0 0 0-1h-4Zm0 2a.5.5 0 0 0 0 1h4a.5.5 0 0 0 0-1h-4Z" fill="#0D6EFD"/></svg>
